lib/preview/nrk-logo-preview-nrk-p2-with-bg.svg

<svg width="69" height="24" viewBox="0 0 69 24" fill="none" xmlns="http://www.w3.org/2000/svg">
<rect width="69" height="24" fill="#78003D"/>
<path d="M6.00427 18.0001V6.00115H9.94146V18.0001H6.00427ZM15.2981 7.91084L17.5623 18.0001H13.2534L10.5498 6.00115H12.9664C13.5206 5.99396 14.0583 6.18931 14.4788 6.55045C14.8999 6.89644 15.1892 7.37676 15.2981 7.91084ZM18.1538 18.0001V6.00115H22.091V18.0001H18.1538ZM25.0647 10.5642C24.6405 10.5683 24.223 10.4573 23.8568 10.243C23.4955 10.0342 23.1954 9.73402 22.9865 9.37266C22.7721 9.00639 22.661 8.58882 22.6652 8.16438C22.6604 7.74252 22.7715 7.32744 22.9865 6.96449C23.1976 6.60705 23.4974 6.31015 23.8568 6.10258C24.2231 5.88856 24.6405 5.77758 25.0647 5.78144C25.4865 5.7769 25.9014 5.88799 26.2645 6.10258C26.6203 6.31197 26.9169 6.60862 27.1263 6.96449C27.3411 7.32754 27.4522 7.74255 27.4476 8.16438C27.4515 8.58879 27.3405 9.00629 27.1263 9.37266C26.9191 9.73244 26.6222 10.0323 26.2645 10.243C25.9014 10.458 25.4862 10.5692 25.0642 10.5642H25.0647ZM28.0559 18.0001V6.00115H31.9934V18.0001H28.0559ZM36.978 12.5583C36.9891 12.5699 37.0735 12.7079 37.2314 12.9723C37.3893 13.2367 37.5949 13.5747 37.8482 13.9864C38.1017 14.3978 38.3692 14.8343 38.6506 15.2961C38.932 15.7578 39.1969 16.1944 39.4451 16.6058C39.6924 17.0173 39.974 17.482 40.29 18.0001H35.9641C35.6936 17.5607 35.4484 17.1635 35.2288 16.8086C35.0091 16.4537 34.7756 16.0706 34.5281 15.6594C34.2801 15.2486 34.0349 14.8486 33.7925 14.4595C33.5501 14.0705 33.3418 13.7297 33.1675 13.4371C32.9926 13.1444 32.8714 12.9472 32.8039 12.8456C32.6368 12.5935 32.5379 12.3024 32.517 12.0006C32.5337 11.711 32.6269 11.431 32.787 11.1892C32.8546 11.0765 32.9786 10.8765 33.1588 10.5892C33.3391 10.3019 33.5503 9.96111 33.7925 9.56678C34.0347 9.17246 34.2799 8.76967 34.5281 8.35844C34.7763 7.94721 35.0098 7.5613 35.2288 7.20077C35.4488 6.84061 35.6939 6.44065 35.9641 6.00088H40.29L36.9439 11.4596C36.8404 11.6216 36.782 11.8084 36.7749 12.0006C36.786 12.2024 36.8565 12.3964 36.9774 12.5583H36.978Z" fill="white"/>
<path d="M53.0216 7.55478C52.8137 7.23405 52.5465 6.95576 52.2343 6.73478C51.8866 6.49176 51.5004 6.30891 51.0918 6.19392C50.5958 6.05725 50.0826 5.99191 49.5681 5.99985H44.8615V17.9998H46.6392V13.6899H49.7038C50.3953 13.7004 51.0778 13.5315 51.6844 13.1998C52.2657 12.8783 52.7485 12.405 53.0811 11.8305C53.4377 11.1967 53.6161 10.4784 53.5975 9.75166C53.599 9.35895 53.5536 8.96746 53.4623 8.58546C53.3742 8.21969 53.2252 7.8713 53.0216 7.55478ZM51.447 11.197C51.2197 11.5535 50.8849 11.8287 50.4908 11.9829C50.0124 12.1636 49.5034 12.2497 48.9921 12.2364H46.6389V7.47026H49.2295C49.7242 7.45163 50.2167 7.54696 50.6686 7.74885C51.028 7.92226 51.3218 8.20677 51.5063 8.56012C51.7021 8.95645 51.7981 9.39446 51.786 9.83618C51.8055 10.3128 51.6878 10.785 51.447 11.197Z" fill="#FDAFD7"/>
<path d="M57.0459 16.546C57.314 16.3167 57.5894 16.0779 57.8806 15.8193C58.2869 15.4589 58.6961 15.0673 59.108 14.6446C59.52 14.2219 59.9122 13.7826 60.2847 13.3266C60.6466 12.8852 60.9775 12.4194 61.2751 11.9325C61.5531 11.48 61.7802 10.9982 61.9523 10.4959C62.1121 10.0336 62.195 9.54831 62.1978 9.05928C62.2059 8.60266 62.1134 8.14985 61.9269 7.73281C61.7422 7.33891 61.47 6.99214 61.1312 6.71874C60.7434 6.41196 60.2969 6.18754 59.8191 6.05929C59.2318 5.89903 58.6248 5.82224 58.016 5.83114C57.6215 5.83011 57.2278 5.86404 56.8394 5.93254C56.4699 5.99787 56.1071 6.09698 55.7558 6.2286C55.4207 6.35379 55.0954 6.50339 54.7823 6.6762L55.0024 8.14661C55.2705 7.96716 55.5572 7.81702 55.8574 7.69874C56.1836 7.56788 56.5207 7.46605 56.8648 7.39449C57.2156 7.32125 57.573 7.28455 57.9313 7.28494C58.3067 7.27728 58.6809 7.32849 59.0403 7.43675C59.3266 7.52428 59.5898 7.67442 59.8106 7.8762C60.0095 8.06144 60.163 8.28986 60.2593 8.5438C60.3577 8.81164 60.4065 9.09513 60.4032 9.38041C60.3975 9.8593 60.2998 10.3326 60.1154 10.7748C59.9011 11.294 59.6285 11.7873 59.3027 12.2452C58.9235 12.7832 58.5107 13.2969 58.0668 13.7832C57.5928 14.3072 57.0764 14.8311 56.5177 15.355C55.959 15.879 55.3805 16.4114 54.7823 16.9522L55.0024 18.0001H62.3333L62.5364 16.5463L57.0459 16.546Z" fill="#FDAFD7"/>
</svg>

<svg xmlns="http://www.w3.org/2000/svg" viewBox="0 0 69 24"><path fill="#78003D" d="M0 0h69v24H0z"/><path fill="#fff" d="M6.004 18V6.001h3.937v12H6.004Zm9.294-10.09L17.562 18h-4.309L10.55 6.001h2.416a2.276 2.276 0 0 1 1.513.55c.42.345.71.826.82 1.36ZM18.154 18V6.001h3.937v12h-3.937Zm6.91-7.436a2.382 2.382 0 0 1-2.4-2.4 2.303 2.303 0 0 1 .323-1.2 2.411 2.411 0 0 1 3.278-.861c.355.209.652.506.861.861.215.364.326.779.322 1.2a2.4 2.4 0 0 1-1.183 2.079 2.302 2.302 0 0 1-1.2.321ZM28.057 18V6.001h3.937v12h-3.937Zm8.922-5.442c.011.012.096.15.253.414.158.265.364.603.617 1.014a309.436 309.436 0 0 1 1.597 2.62c.247.411.529.876.845 1.394h-4.326c-.27-.44-.516-.837-.735-1.191-.22-.355-.453-.738-.7-1.15-.249-.41-.494-.81-.737-1.2-.242-.389-.45-.73-.625-1.022-.174-.293-.296-.49-.363-.591a1.748 1.748 0 0 1-.287-.845c.017-.29.11-.57.27-.812.068-.113.192-.313.372-.6s.391-.628.633-1.022c.243-.395.488-.797.736-1.209l.7-1.157.736-1.2h4.326l-3.346 5.459a1.079 1.079 0 0 0-.17.54c.012.202.082.396.203.558h.001Z"/><path fill="#FDAFD7" d="M53.022 7.555a3.012 3.012 0 0 0-.788-.82 3.783 3.783 0 0 0-1.142-.541A5.422 5.422 0 0 0 49.568 6h-4.706v12h1.777v-4.31h3.065a4.002 4.002 0 0 0 1.98-.49 3.661 3.661 0 0 0 1.397-1.37 4.03 4.03 0 0 0 .516-2.078 4.936 4.936 0 0 0-.135-1.167 3.36 3.36 0 0 0-.44-1.03Zm-1.575 3.642a1.997 1.997 0 0 1-.956.786 3.95 3.95 0 0 1-1.499.253H46.64V7.47h2.59a3.23 3.23 0 0 1 1.44.279c.359.173.653.458.837.811.196.396.292.834.28 1.276.02.477-.098.949-.339 1.361ZM57.046 16.546c.268-.23.543-.468.835-.727.406-.36.815-.752 1.227-1.174a20.16 20.16 0 0 0 1.177-1.318c.362-.442.693-.908.99-1.395.278-.452.505-.934.677-1.436.16-.462.243-.948.246-1.437a3.114 3.114 0 0 0-.271-1.326 2.868 2.868 0 0 0-.796-1.014 3.633 3.633 0 0 0-1.312-.66 6.49 6.49 0 0 0-1.803-.228 6.674 6.674 0 0 0-1.177.102c-.37.065-.732.164-1.083.296-.335.125-.66.274-.974.447l.22 1.47c.268-.179.555-.329.855-.447.327-.131.664-.233 1.008-.305a5.19 5.19 0 0 1 1.066-.11c.376-.007.75.044 1.11.153.286.087.549.237.77.44.199.184.352.413.448.667.099.268.148.551.144.836a3.738 3.738 0 0 1-.288 1.395 7.418 7.418 0 0 1-.812 1.47c-.38.538-.792 1.052-1.236 1.538a26.88 26.88 0 0 1-1.55 1.572c-.558.524-1.137 1.056-1.735 1.597l.22 1.048h7.331l.203-1.454h-5.49Z"/></svg>
